X:1
T:Title
%%score [ 1 2 ( 3 4 ) ( 5 6 ) ]
L:1/8
Q:1/4=120
M:3/4
K:Bb
V:1 treble nm="S."
V:2 treble nm="A."
V:3 treble-8 nm="T."
V:4 treble-8 
V:5 bass nm="B."
V:6 bass 
V:1
 F>D |: B,2"^The Star-Spangled Banner" D2 F2 | B4 d>c |"^Harmony arranged by A.S." B2 D2 =E2 | %4
w: O! *|say can you|see by the|dawn's ear- ly|
w: |stripes and bright|stars, through the|per- i- lous|
 F4 FF | [Bd]3 c B2 | A4 GA | B2 B2 F2 |1 D2 B,2 F>D :|2 D2 B,2 d>d || d2 [ce]2 [df]2 | [df]4 ed | %12
w: light what so|proud- ly we|hailed at the|twi- light's last|gleam- ing, whose broad|stream- ing? And the|rock- ets' red|glare, the bombs|
w: fight, o'er the|ram- parts we|watched, were so|gal- lant- ly|||||
 c2 d2 [ce]2 | [ce]4 [ce]2 | [Bd]3 c B2 | A4 GA | B2 D2 =E2 | F4 F2 | B2 B2 BA | G2 G2 G2 | %20
w: burst- ing in|air, gave|proof through the|night that our|flag was still|there; O!|say, does that *|star- span- gled|
w: ||||||||
 c2 ed cB | (B2 !fermata!A2) FF | (B3 c) de | !fermata![df]4 Bc | d3 e c2 | !fermata!B6 |] %26
w: ban- ner * yet *|wave * o'er the|land * of the|free and the|home of the|brave?|
w: ||||||
V:2
 F>D |: B,2 D2 F2 | G4 A>A | G2 D2 =E2 | F4 FF | F3 F F2 | F4 GF | F2 B2 F2 |1 D2 B,2 F>D :|2 %9
w: O! *|say can you|see by the|dawn's ear- ly|light what so|proud- ly we|hailed at the|twi- light's last|gleam- ing, whose broad|
w: |stripes and bright|stars, through the|per- i- lous|fight, o'er the|ram- parts we|watched, were so|gal- lant- ly||
 D2 B,2 B>B || B2 B2 B2 | B4 cB | A2 B2 F2 | F4 F2 | F3 F F2 | F4 GA | B2 D2 =E2 | F4 F2 | %18
w: stream- ing? And the|rock- ets' red|glare, the bombs|burst- ing in|air, gave|proof through the|night that our|flag was still|there; O!|
w: |||||||||
 B2 B2 BA | G2 G2 G2 | c2 ed cB | (B2 !fermata!A2) FF | (B3 F) BB | !fermata!B4 Bc | d3 e c2 | %25
w: say, does that *|star- span- gled|ban- ner * yet *|wave * o'er the|land * of the|free and the|home of the|
w: |||||||
 !fermata!B6 |] %26
w: brave?|
w: |
V:3
 f>d |: B2 d2 [cf]2 | [Bd]4 d>[cd] | [Bd]2 [Gd]2 [Gc]2 | [Ac]4 [ce][ce] | [Bd]3 [Af] [Bd]2 | %6
w: O! *|say can you|see by the|dawn's ear- ly|light what so|proud- ly we|
w: |stripes and bright|stars, through the|per- i- lous|fight, o'er the|ram- parts we|
 [Ac]4 [Bc][Ac] | B2 B2 f2 |1 d2 B2 f>d :|2 d2 B2 [df]>[df] || [df]2 [ef]2 f2 | f4 [ef][df] | %12
w: hailed at the|twi- light's last|gleam- ing, whose broad|stream- ing? And the|rock- ets' red|glare, the bombs|
w: watched, were so|gal- lant- ly|||||
 [cf]2 [df]2 [ce]2 | [ce]4 [ce]2 | d3 [ce] [Bd]2 | [Ac]4 GA | B2 d2 =e2 | f4 f2 | %18
w: burst- ing in|air, gave|proof through the|night that our|flag was still|there; O!|
w: ||||||
 [Bd]2 [Be]2 [Bf]2 | [Be]2 [Be]2 [=Bd]2 | c2 ed cB | f4 x2 | x6 | x6 | x6 | x6 |] %26
w: say, does that|star- span- gled|ban- ner * yet *||||||
w: ||||||||
V:4
 x2 |: x6 | x6 | x6 | x6 | x6 | x6 | x6 |1 x6 :|2 x6 || x6 | x6 | x6 | x6 | x6 | x6 | x6 | x6 | %18
w: ||||||||||||||||||
 x6 | x6 | x6 | (d2 !fermata!c2) ff | (B3 c) de | !fermata![df]4 Bc | d3 e c2 | !fermata!B6 |] %26
w: |||wave * o'er the|land * of the|free and the|home of the|brave?|
V:5
 F,>D, |: B,,2 B,2 A,2 | [G,B,]4 [^F,A,]>[F,A,] | [G,B,]2 [D,B,]2 [C,B,]2 | [F,A,]4 [F,A,][F,A,] | %5
w: O! *|say can you|see by the|dawn's ear- ly|light what so|
w: |stripes and bright|stars, through the|per- i- lous|fight, o'er the|
 [B,,F,]3 [C,F,] [D,F,]2 | F,4 [E,G,][E,F,] | [D,F,]2 B,2 F,2 |1 %8
w: proud- ly we|hailed at the|twi- light's last|
w: ram- parts we|watched, were so|gal- lant- ly|
"^This edition produced by Andrew Sims 2019" D,2 B,,2 F,>D, :|2 D,2 B,,2 [B,D]>[B,D] || %10
w: gleam- ing, whose broad|stream- ing? And the|
w: ||
 [B,D]2 [B,C]2 [B,D]2 | [B,D]4 [CE][B,D] | [F,A,]2 [F,B,]2 [F,C]2 | [F,A,]4 [F,A,]2 | %14
w: rock- ets' red|glare, the bombs|burst- ing in|air, gave|
w: ||||
 [F,B,]3 [F,A,] [F,B,]2 | [F,A,]4 G,A, | B,2 D,2 =E,2 | F,4 F,2 | [B,,B,]2 [B,,B,]2 [C,B,][D,A,] | %19
w: proof through the|night that our|flag was still|there; O!|say, does that *|
w: |||||
 [E,G,]2 [E,G,]2 G,2 | C2 ED CB, | (B,2 !fermata!A,2) F,F, | (B,3 F,) B,C | !fermata!D4 B,C | %24
w: star- span- gled|ban- ner * yet *|wave * o'er the|land * of the|free and the|
w: |||||
 D3 E C2 | !fermata!B,6 |] %26
w: home of the|brave?|
w: ||
V:6
 x2 |: x6 | x6 | x6 | x6 | x6 | x6 | x6 |1 x6 :|2 x6 || x6 | x6 | x6 | x6 | x6 | x6 | x6 | x6 | %18
 x6 | x6 | x6 | F,4 x2 | x6 | x6 | x6 | x6 |] %26

